X:6330
T: Suite sudarmoricaine
C: trad. breton (arrangements Matthieu Quinquet)
O:England
K: C
M: 2/4
V:1 clef=treble name="Voix I"      sname="V. I"
V:2 clef=treble name="Voix II"     sname="V. II"  space=+10
%
%
[V:1] |:"Dm"a2ag "F"f3a | "C"g2f2 "Dm"d4 :| "Dm"d2cd "Bb"f3d | "C"c2d2 "F"f4 | "C"g2fg "Dm"a3d | "C"d2c2 "Dm"d4 |]
[V:2] |:f2fe d3f | e2c2 d4 :| A2GA c3A | G2A2 d4 | e2de f3A | A2G2 A4 |]
%
%
[V:1] z2 "Dm"A2 | d3e  f3d | "C"c3A  "Bb"d3A | "Dm"d3e f3d | "C"c3A "Bb"d3f |
w: e par- don Spe- zet e oan bet. E par- don Spe- zet e aon bet Ur
w: 'barzh ur park bras hon eus kous- ket 'barzh ur park bras hon eus kous- ket Ur
w: D'an os- pi- tal on bet ka- set D'an os- pi- tal on bet ka- set War
w: Ur mell ki- bleiz zo tre- me- net Ur mell ki- bleiz zo tre- me- net Ha
[V:2] z2 D2 | A3c  d3A | G3D  A3D | A3c d3A | G3D A3d |
%
[V:1] f2f2 "C"e3d | e2f2 "Dm"d3f | f2f2  "C"e3d | e2f2 "Bb"d4 |: "Dm"dcde f2d2 |
w: plac'h ya- ouank am eus ka- vet Ur plac'h ya- ouank am eus ka- vet Tra la la la le- no
w: ve- rol vras am eus ta- pet  Ur ve- rol vras am eus ta- pet
w: un daol vras on bet la- kaet War un daol vras on bet la- kaet
w: ma lost bras en deus de- bret Ha ma lost bras en deus de- bret
[V:2] d2d2 c3A | c2d2 A3d | d2d2  c3A | c2d2 A4 |:     AGAc d2A2 |
%
%
[V:1] dcde f2d2 |1 dcde "Bb"f3d | d2"C"c2 "Dm"d4 :|2 dcde "Bb"f3d | d2"C"c2 "Dm"d4 |]
w: Tra la la la le-no, Tra la la la lo, la la la lo  Tra la la la lo, la la la lo
[V:2] AGAc d2A2 |1 AGAc     B3A | A2G2      A4   :|2 AGAc     B3F | F2E2    F4 |]
%
%


